!!!COM: Palestrina, Giovanni Perluigi da
!!!OPR: Missa Te Deum laudamus
!!!OMD: Credo
!!!OTL: Et iterum
**kern	**kern	**kern	**kern
*Itenor	*Itenor	*Icalto	*Icant
!Tenor 2	!Tenor 1	!Altus	!Cantus
*clefGv2	*clefGv2	*clefG2	*clefG2
*k[]	*k[]	*k[]	*k[]
*A:aeo	*A:aeo	*A:aeo	*A:aeo
*M4/2	*M4/2	*M4/2	*M4/2
=131	=131	=131	=131
0r	0r	1d	1r
.	.	2.f	1a
.	.	4f	.
=132	=132	=132	=132
0r	0r	2f	2.cc
.	.	2e	.
.	.	.	4cc
.	.	2c	2cc
.	.	2d	2b
=133	=133	=133	=133
1r	0r	2B	2g
.	.	2A	2a
1A	.	4c	2e
.	.	4B	.
.	.	4c	2a
.	.	4d	.
=134	=134	=134	=134
2.c	0r	4e	4g
.	.	4f	4f
.	.	4g	4e
4c	.	4f	4f
2c	.	2e	4g
.	.	.	4a
2B	.	4d	4b
.	.	4c	4cc
=135	=135	=135	=135
2G	0r	2d	2b
2A	.	2c	1a
1E	.	1B	.
.	.	.	2g#
=136	=136	=136	=136
2.F	2r	1A	0a
.	2A	.	.
4G	.	.	.
2.A	2.c	2r	.
.	.	2e	.
8G	4c	.	.
8F	.	.	.
=137	=137	=137	=137
1E	2c	2.g	0r
.	2B	.	.
.	.	4g	.
1r	2G	2g	.
.	2A	2e	.
=138	=138	=138	=138
0r	4D	1f	1a
.	4E	.	.
.	4F	.	.
.	4G	.	.
.	4A	2.e	2.cc
.	4B	.	.
.	4c	.	.
.	4d	4f	4cc
=139	=139	=139	=139
1r	0e	1g	2cc
.	.	.	2b
2r	.	[1c	2g
2A	.	.	2a
=140	=140	=140	=140
2.c	2r	2c]	1e
.	1e	2A	.
4c	.	.	.
2c	.	2c	1r
2B	[2d	2d	.
=141	=141	=141	=141
2G	2d]	1e	2r
2A	2c	.	1a
1E	2B	2r	.
.	2c	[2e	[2g
=142	=142	=142	=142
1r	1d	2e]	2g]
.	.	1d	2f
2r	1A	.	2.e
[2e	.	2c	.
.	.	.	4f
=143	=143	=143	=143
2e]	1r	2B	2g
1d	.	2B	2d
.	2r	1A	2e
2c	[2e	.	2a
=144	=144	=144	=144
2B	2e]	1d	2a
2B	1d	.	2g#
1A	.	2e	1a
.	2c#	2e	.
=145	=145	=145	=145
2r	1d	2f#	2r
1d	.	1f#	1a
.	2r	.	.
2d	[2d	2f#	2a
=146	=146	=146	=146
1G	2d]	0g	4b
.	.	.	4cc
.	2d	.	4dd
.	.	.	4cc
1d	1G	.	4b
.	.	.	4a
.	.	.	2b
=147	=147	=147	=147
2r	2.d	2f	[0a
2d	.	2f	.
.	8c	.	.
.	8B	.	.
2d	1A	2f	.
2c#	.	2e	.
=148	=148	=148	=148
2.d	1D	1.f	1a]
4c	.	.	.
4A	1r	.	2r
4B	.	.	.
4c	.	2e	2a
4A	.	.	.
=149	=149	=149	=149
1B	2r	1d	2a
.	2d	.	2g#
1A	2d	1e	2.a
.	2c#	.	.
.	.	.	4g
=150	=150	=150	=150
1D	2.d	1r	4f
.	.	.	4e
.	.	.	1f
.	4c	.	.
1r	4A	2r	.
.	4B	.	.
.	4c	2a	2e
.	4A	.	.
=151	=151	=151	=151
1r	1B	2a	2d
.	.	2g#	1dd
2r	1A	2.a	.
2A	.	.	[2cc
.	.	4g	.
=152	=152	=152	=152
2A	2r	4e	2cc]
.	.	4f	.
2G	1d	4g	2b
.	.	4d	.
2.A	.	2f	1a
.	[2c	[2e	.
4G	.	.	.
=153	=153	=153	=153
4E	2c]	2e]	1g
4F	.	.	.
4G	2.B	4d	.
4E	.	4c	.
1F	.	4d	1r
.	4A	4c	.
.	[2A	4c	.
.	.	8B	.
.	.	8A	.
=154	=154	=154	=154
1E	2A]	1B	1r
.	2G#	.	.
2r	2A	2c#	2r
[2A	[2c#	[2e	[2a
=155	=155	=155	=155
2A]	2c#]	2e]	2a]
2A	2c#	2e	2a
1D	[1d	1f	1a
=156	=156	=156	=156
1A	2d]	1e	0a
.	4c#	.	.
.	4B	.	.
2r	2c#	2r	.
2d	2d	2f	.
=157	=157	=157	=157
2d	1A	2f	2r
2c#	.	2e	2a
2d	1r	2f	2a
2B	.	2d	2g#
=158	=158	=158	=158
1A	2r	2.e	2.a
.	2A	.	.
.	.	4d	4g
2r	2A	2c	4e
.	.	.	4f
[2d	2G	2B	4g
.	.	.	4d
=159	=159	=159	=159
4d]	2.A	1.A	2f
4c	.	.	.
4c	.	.	4e
8B	4G	.	4f
8A	.	.	.
2B	4E	.	4g
.	4F	.	4a
2G	4G	2e	[2b
.	4E	.	.
=160	=160	=160	=160
1A	1F	2e	4b]
.	.	.	4a
.	.	2d	1a
1B	1E	1e	.
.	.	.	2g#
=161	=161	=161	=161
0c#	0A	0e	0a
*-	*-	*-	*-
!!!CDT: 1525/^1526/-1594/2/2
!!!OCY: Italia
!!!AGN: Mass (Paraphrase)
!!!AST: renaissance, vocal
!!!ASW: Hymn
!!!PWK: Masses, Book 9
!!!RNB: Cadence finals: G,E,D
!!!YOR: Le Opere Complete, v. 25, p. 172
!!!YOO: Rome, Italy: Fratelli Scalera
!!!END: 1992//
!!!EED: John Miller
!!!YEC: Copyright 2000, John Miller
!!!YEN: United States of America
!!!YEM: Rights to all derivative electronic formats reserved.
!!!YEM: Refer to licensing agreement for further details.
!!!YEM: This file must be accompanied by the licensing agreement.
!!!YEM: A copy of the licensing agreement may be found at http://www.music-cog.ohio-state.edu/HumdrumDatabases/Palestrina/license.txt
!!!EMD: converted to Humdrum by Bret Aarden
